svg/fluentui-system-icons/ic_fluent_align_end_horizontal_20_filled.svg

<svg width="20" height="20" viewBox="0 0 20 20" fill="none" xmlns="http://www.w3.org/2000/svg">
<path d="M16 17.5C16 17.7761 16.2239 18 16.5 18C16.7761 18 17 17.7761 17 17.5V2.5C17 2.22386 16.7761 2 16.5 2C16.2239 2 16 2.22386 16 2.5V17.5Z" fill="#212121"/>
<path d="M10 4C8.89543 4 8 4.89543 8 6V14C8 15.1046 8.89543 16 10 16H12C13.1046 16 14 15.1046 14 14V6C14 4.89543 13.1046 4 12 4H10Z" fill="#212121"/>
</svg>

<svg xmlns="http://www.w3.org/2000/svg" width="20" height="20"><path d="M16 17.5a.5.5 0 0 0 1 0v-15a.5.5 0 0 0-1 0v15ZM10 4a2 2 0 0 0-2 2v8a2 2 0 0 0 2 2h2a2 2 0 0 0 2-2V6a2 2 0 0 0-2-2h-2Z"/></svg>
